X: 10207
T: Dirty Bee, The
R: reel
M: 4/4
K: Aminor
AB|:cBAB dBAB|edBA B2 AB|cBAB dBAB|ABBA B2 AB|
cBAB dBAB|edBA B2 AB|cBAB dBAB|1 ABBA B2 AB:|[K: Embj] [2 eBfB gBaB||
|:b2 ge efge|fB d/d/d fgaf|b2 ge efge|fBdf efga|
b2 ge efge|fB d/d/d fgaf|b2 ge efge|1 fBdf e2 f/g/a:|2 fBdf e2 AB||

